data/icons/hotspot.svg

<svg width="16" height="16" viewBox="0 0 16 16" fill="none" xmlns="http://www.w3.org/2000/svg">
    <path
        d="M2.0625 8.00001V9.00001C4.81953 9.00001 7.0625 11.243 7.0625 14H8.0625C8.0625 10.6916 5.37091 8.00001 2.0625 8.00001Z"
        fill="#087E8B" />
    <path
        d="M2.0625 4.37501V5.37501C6.81834 5.37501 10.6875 9.24417 10.6875 14H11.6875C11.691 12.7355 11.4436 11.4829 10.9597 10.3147C10.4758 9.14644 9.76498 8.08578 8.86841 7.1941C7.97671 6.29756 6.91605 5.58677 5.74782 5.10287C4.57958 4.61898 3.32698 4.37158 2.0625 4.37501Z"
        fill="#087E8B" />
    <path
        d="M14.2711 8.84235C13.606 7.26802 12.6417 5.83774 11.4317 4.63085C10.2026 3.3987 8.74218 2.42156 7.13432 1.75556C5.52646 1.08956 3.80284 0.747829 2.0625 0.75001V1.75001C8.81716 1.75001 14.3125 7.24535 14.3125 14H15.3125C15.3159 12.2282 14.9616 10.474 14.2711 8.84235ZM2.8125 11.25C2.41694 11.25 2.03026 11.3673 1.70136 11.5871C1.37246 11.8068 1.11612 12.1192 0.964742 12.4846C0.813367 12.8501 0.77376 13.2522 0.85093 13.6402C0.928101 14.0282 1.11858 14.3845 1.39829 14.6642C1.67799 14.9439 2.03436 15.1344 2.42232 15.2116C2.81028 15.2888 3.21242 15.2491 3.57787 15.0978C3.94332 14.9464 4.25568 14.69 4.47544 14.3612C4.6952 14.0323 4.8125 13.6456 4.8125 13.25C4.81192 12.7198 4.60102 12.2114 4.22608 11.8364C3.85113 11.4615 3.34276 11.2506 2.8125 11.25ZM2.8125 14.25C2.61472 14.25 2.42138 14.1914 2.25693 14.0815C2.09248 13.9716 1.96431 13.8154 1.88862 13.6327C1.81293 13.45 1.79313 13.2489 1.83172 13.0549C1.8703 12.8609 1.96554 12.6828 2.10539 12.5429C2.24525 12.4031 2.42343 12.3078 2.61741 12.2692C2.81139 12.2306 3.01246 12.2504 3.19518 12.3261C3.37791 12.4018 3.53409 12.53 3.64397 12.6944C3.75385 12.8589 3.8125 13.0522 3.8125 13.25C3.8122 13.5151 3.70675 13.7693 3.51928 13.9568C3.33181 14.1443 3.07763 14.2497 2.8125 14.25Z"
        fill="#087E8B" />
</svg>

<svg xmlns="http://www.w3.org/2000/svg" width="16" height="16" fill="none" viewBox="0 0 16 16"><path fill="#087e8b" d="M2.063 8v1c2.757 0 5 2.243 5 5h1c0-3.308-2.692-6-6-6"/><path fill="#087e8b" d="M2.063 4.375v1c4.755 0 8.625 3.87 8.625 8.625h1a9.56 9.56 0 0 0-2.82-6.806 9.56 9.56 0 0 0-6.805-2.819"/><path fill="#087e8b" d="M14.271 8.842a13.2 13.2 0 0 0-2.84-4.211A13.2 13.2 0 0 0 2.064.75v1c6.754 0 12.25 5.495 12.25 12.25h1a13.2 13.2 0 0 0-1.042-5.158M2.813 11.25a2 2 0 1 0 0 4 2 2 0 0 0 0-4m0 3a1 1 0 1 1 0-2 1 1 0 0 1 0 2"/></svg>
